img/icons/skills/Jquery.svg

<svg width="162" height="65" viewBox="0 0 162 65" fill="none" xmlns="http://www.w3.org/2000/svg">
<rect width="161" height="65" fill="white"/>
<path fill-rule="evenodd" clip-rule="evenodd" d="M154.373 17.7065L161.139 17.7437C161.139 17.7437 148.56 34.7888 147.533 36.178C147.199 36.6279 146.692 37.113 146.435 37.7144C145.786 39.2262 145.119 42.5424 145.119 42.5424L138.928 42.5731C138.928 42.5731 139.891 39.1166 139.852 37.2754C139.817 35.6668 138.996 34.0605 138.535 32.4473C138.07 30.8146 137.438 27.6192 137.438 27.6192H143.802L144.68 31.1306L154.373 17.7065Z" fill="#1A1918"/>
<path fill-rule="evenodd" clip-rule="evenodd" d="M141.561 21.3011C142.81 22.054 143.576 26.206 143.576 26.206C143.576 26.206 137.043 26.3024 133.487 26.3024H130.415L126.684 42.5423H120.979C120.979 42.5423 124.529 24.8937 125.368 21.694C125.64 20.6583 127.229 20.8358 129.912 20.8358H134.198C136.966 20.8358 140.201 20.4826 141.561 21.3011Z" fill="#1A1918"/>
<path fill-rule="evenodd" clip-rule="evenodd" d="M114.998 29.2105C114.998 29.2105 115.176 28.168 114.395 26.961C113.728 25.9318 113.111 25.6926 111.356 25.6378C106.398 25.482 106.494 29.1557 106.494 29.1557L114.998 29.2105ZM120.375 25.0036C121.102 27.624 119.717 33.7818 119.717 33.7818C119.717 33.7818 112.486 33.661 108.525 33.7818C107.293 33.8193 105.819 33.6479 105.452 34.2208C104.936 35.0238 105.641 36.2596 106.238 36.7817C106.925 37.383 108.263 37.4512 108.744 37.5125C111.959 37.9208 118.688 37.6178 118.688 37.6178L117.522 42.7793C117.522 42.7793 108.013 43.2558 103.258 42.1209C102.319 41.8972 101.438 41.4452 100.844 40.8042C100.681 40.6289 100.541 40.3897 100.387 40.1834C100.264 40.0186 99.9067 39.4767 99.7462 39.0485C98.66 36.154 99.8735 30.6084 101.063 27.637C101.201 27.2925 101.375 26.856 101.557 26.4848C101.785 26.022 101.978 25.4996 102.16 25.223C102.283 25.0321 102.435 24.9091 102.562 24.7291C102.709 24.5163 102.88 24.31 103.038 24.1259C103.477 23.6166 103.975 23.2566 104.574 22.8093C106.556 21.3256 110.142 20.1734 114.45 20.6146C116.072 20.7812 118.521 21.3606 119.717 23.0286C120.037 23.4741 120.195 24.3583 120.375 25.0036Z" fill="#1A1918"/>
<path fill-rule="evenodd" clip-rule="evenodd" d="M94.2048 20.816L99.7374 20.7832C99.7374 20.7832 96.6542 35.4099 95.0828 42.5424H88.7184C84.2702 42.5424 80.3089 43.0932 78.6236 39.9087C76.9887 36.8168 78.5489 31.7319 79.2819 28.2775C79.7999 25.8328 80.8907 20.8359 80.8907 20.8359L86.6228 20.7832C86.6228 20.7832 85.0032 28.5628 84.3293 32.4472C84.088 33.8386 83.5901 35.1488 84.11 36.178C84.6038 37.157 85.295 37.227 87.4017 37.2753C88.069 37.2908 90.2547 37.2753 90.2547 37.2753L94.2048 20.816Z" fill="#1A1918"/>
<path fill-rule="evenodd" clip-rule="evenodd" d="M68.3092 31.3499C68.8885 29.2915 69.7334 27.0596 69.6259 25.2051C69.5097 23.2214 67.8463 21.4152 66.7731 21.0357C63.5406 19.8943 60.5144 21.4899 59.3117 22.7911C57.7555 24.4767 57.2288 26.4453 56.678 29.1555C56.2678 31.1677 55.932 33.2921 56.678 34.8612C57.999 37.6353 62.1182 37.0296 66.5535 37.0559C67.2118 35.2916 67.7562 33.3097 68.3092 31.3499ZM75.9903 23.2301C76.6223 27.8255 74.1974 32.8974 72.5272 37.3081C74.2303 37.4618 75.7226 37.2843 75.8301 37.4113C75.942 37.5761 74.6888 42.6762 74.2519 42.6892C72.9002 42.7245 68.4213 42.7617 66.5535 42.7617C60.4592 42.7617 54.7578 43.1589 51.8502 40.1283C50.6695 38.8971 49.8532 36.7858 49.6555 35.3002C49.3262 32.8202 49.7389 30.0902 50.3139 27.8388C50.8341 25.8064 51.5011 23.8884 52.5086 22.1327C55.0695 17.6625 59.5245 14.3444 66.9925 15.1103C68.4408 15.2596 70.5212 15.8938 71.8206 16.6463C71.9104 16.6993 72.2245 16.9493 72.2967 16.9933C74.0524 18.1105 75.6523 20.7767 75.9903 23.2301Z" fill="#1A1918"/>
<path fill-rule="evenodd" clip-rule="evenodd" d="M49.0255 20.8425C48.6568 22.5214 48.2881 24.4242 47.8996 26.0832H41.7549C42.2311 24.2442 42.5954 22.416 43.0716 20.8162C45.0379 20.8162 46.8661 20.8425 49.0255 20.8425Z" fill="#1A1918"/>
<path fill-rule="evenodd" clip-rule="evenodd" d="M41.5357 27.6194H47.4608C46.6863 31.9078 45.1524 38.8249 43.9497 43.6396C43.1969 46.6528 42.6944 48.8519 40.6577 50.4428C40.4755 50.5856 40.3705 50.5177 40.219 50.6624C39.8435 51.0202 38.1077 51.4351 37.1466 51.5401C35.584 51.7093 33.8174 51.5621 31.8972 51.5227C32.3997 49.6859 32.9682 47.4804 33.4159 45.8343C38.0968 46.4007 38.2155 41.9763 39.1217 37.7145C39.6462 35.2522 41.2352 28.6071 41.5357 27.6194Z" fill="#1A1918"/>
<path fill-rule="evenodd" clip-rule="evenodd" d="M27.7097 38.8116L27.5827 39.1406C25.4187 43.354 21.5848 45.9394 16.116 46.0534C13.5595 46.1061 11.1235 45.4502 9.53227 44.7367C6.09803 43.1939 3.20967 40.3325 1.63212 37.2753C-0.630726 32.8927 -1.03875 26.7963 3.66633 22.2427C3.73883 22.2427 3.09566 23.23 3.16816 23.23L3.03866 23.6514C-0.351897 34.2664 10.094 43.363 20.2483 42.3227C22.6886 42.0727 25.8007 40.7361 27.7097 38.8116Z" fill="#21609B"/>
<path fill-rule="evenodd" clip-rule="evenodd" d="M21.565 34.4223C24.1196 34.44 26.788 33.246 28.3681 31.5696C26.9857 35.0788 22.983 37.3345 17.6149 36.617C13.1205 36.0157 8.8389 31.4928 8.39774 26.9609C8.07522 23.6626 9.22493 21.6941 11.1191 19.3064C10.4608 20.5552 10.2148 21.5184 10.1534 22.1328C9.43374 29.2674 15.8527 34.3851 21.565 34.4223Z" fill="#21609B"/>
<path fill-rule="evenodd" clip-rule="evenodd" d="M28.1116 25.5607C27.7144 26.4716 25.4277 28.1919 24.418 28.407C20.4196 29.2586 17.8587 27.3626 16.5176 25.2051C16.318 24.8826 15.9494 24.0027 15.8834 23.7787C15.3632 22.01 15.6024 19.3348 17.1542 17.95C16.6867 19.2666 16.6186 20.7962 16.8645 21.7904C17.0136 22.3917 17.4677 23.441 17.9222 24.1012C18.7494 25.3039 19.2739 25.5961 20.3363 26.2346C20.8146 26.5221 21.328 26.7526 21.5498 26.8161C22.557 27.1123 24.6835 27.8936 28.1116 25.5607Z" fill="#21609B"/>
</svg>

<svg width="162" height="65" fill="none" xmlns="http://www.w3.org/2000/svg"><path fill="#fff" d="M0 0h161v65H0z"/><path fill-rule="evenodd" clip-rule="evenodd" d="M154.373 17.706l6.766.038s-12.579 17.045-13.606 18.434c-.334.45-.841.935-1.098 1.536-.649 1.512-1.316 4.828-1.316 4.828l-6.191.031s.963-3.456.924-5.298c-.035-1.608-.856-3.215-1.317-4.828-.465-1.632-1.097-4.828-1.097-4.828h6.364l.878 3.512 9.693-13.425z" fill="#1A1918"/><path fill-rule="evenodd" clip-rule="evenodd" d="M141.561 21.301c1.249.753 2.015 4.905 2.015 4.905s-6.533.096-10.089.096h-3.072l-3.731 16.24h-5.705s3.55-17.648 4.389-20.848c.272-1.036 1.861-.858 4.544-.858h4.286c2.768 0 6.003-.353 7.363.465zm-26.563 7.909s.178-1.042-.603-2.249c-.667-1.03-1.284-1.268-3.039-1.323-4.958-.156-4.862 3.518-4.862 3.518l8.504.055zm5.377-4.206c.727 2.62-.658 8.778-.658 8.778s-7.231-.121-11.192 0c-1.232.037-2.706-.134-3.073.439-.516.803.189 2.039.786 2.56.687.602 2.025.67 2.506.732 3.215.408 9.944.105 9.944.105l-1.166 5.161s-9.509.477-14.264-.658c-.939-.224-1.82-.676-2.414-1.317-.163-.175-.303-.414-.457-.62-.123-.165-.48-.707-.64-1.136-1.087-2.894.127-8.44 1.316-11.411.138-.345.312-.781.494-1.152.228-.463.421-.985.603-1.262.123-.19.275-.314.402-.494.147-.213.318-.419.476-.603.439-.51.937-.87 1.536-1.317 1.982-1.483 5.568-2.636 9.876-2.194 1.622.166 4.071.746 5.267 2.414.32.445.478 1.33.658 1.975zm-26.17-4.188l5.532-.033s-3.083 14.627-4.654 21.76h-6.365c-4.448 0-8.41.55-10.094-2.634-1.635-3.092-.075-8.177.658-11.631a1748.48 1748.48 0 011.609-7.442l5.732-.053s-1.62 7.78-2.294 11.664c-.241 1.392-.739 2.702-.219 3.731.494.979 1.185 1.049 3.292 1.097.667.016 2.853 0 2.853 0l3.95-16.459zM68.31 31.35c.578-2.059 1.423-4.29 1.316-6.145-.116-1.984-1.78-3.79-2.853-4.17-3.232-1.14-6.259.455-7.461 1.756-1.556 1.686-2.083 3.654-2.634 6.364-.41 2.013-.746 4.137 0 5.706 1.321 2.774 5.44 2.169 9.876 2.195.658-1.764 1.202-3.746 1.755-5.706zm7.68-8.12c.632 4.596-1.793 9.667-3.463 14.078 1.703.154 3.196-.024 3.303.103.112.165-1.141 5.265-1.578 5.278-1.352.035-5.83.073-7.698.073-6.095 0-11.796.397-14.704-2.634-1.18-1.23-1.997-3.342-2.194-4.828-.33-2.48.083-5.21.658-7.461.52-2.033 1.187-3.95 2.195-5.706 2.56-4.47 7.016-7.789 14.484-7.023 1.448.15 3.528.784 4.828 1.536.09.053.404.303.476.347 1.755 1.117 3.355 3.784 3.693 6.237zm-26.964-2.387c-.37 1.678-.738 3.581-1.126 5.24h-6.145c.476-1.839.84-3.667 1.317-5.267 1.966 0 3.794.027 5.953.027zm-7.49 6.777h5.925c-.775 4.288-2.309 11.205-3.511 16.02-.753 3.013-1.256 5.212-3.292 6.803-.183.143-.288.075-.439.22-.376.357-2.111.772-3.072.877-1.563.17-3.33.022-5.25-.017.503-1.837 1.071-4.043 1.519-5.689 4.68.567 4.8-3.858 5.706-8.12.524-2.462 2.113-9.107 2.414-10.095z" fill="#1A1918"/><path fill-rule="evenodd" clip-rule="evenodd" d="M27.71 38.812l-.127.329c-2.164 4.213-5.998 6.798-11.467 6.912-2.556.053-4.992-.603-6.584-1.316-3.434-1.543-6.322-4.404-7.9-7.462-2.263-4.382-2.67-10.479 2.034-15.032.073 0-.57.987-.498.987l-.13.421c-3.39 10.615 7.056 19.712 17.21 18.672 2.44-.25 5.553-1.587 7.462-3.511z" fill="#21609B"/><path fill-rule="evenodd" clip-rule="evenodd" d="M21.565 34.422c2.555.018 5.223-1.176 6.803-2.852-1.382 3.509-5.385 5.764-10.753 5.047-4.494-.601-8.776-5.124-9.217-9.656-.323-3.298.827-5.267 2.721-7.655-.658 1.25-.904 2.212-.966 2.827-.72 7.134 5.7 12.252 11.412 12.29z" fill="#21609B"/><path fill-rule="evenodd" clip-rule="evenodd" d="M28.112 25.56c-.398.912-2.684 2.632-3.694 2.847-3.998.852-6.56-1.044-7.9-3.202-.2-.322-.569-1.202-.635-1.426-.52-1.769-.28-4.444 1.271-5.829-.467 1.317-.535 2.846-.29 3.84.15.602.604 1.651 1.058 2.311.827 1.203 1.352 1.495 2.414 2.134.479.287.992.518 1.214.581 1.007.296 3.133 1.078 6.562-1.255z" fill="#21609B"/></svg>
